X:80
T:Molly Zouch's Frisk
M:2/4
L:1/8
B:Thompson's Compleat Collection of 200 Favourite Country Dances, vol. 1 (London, 1757)
Z:Transcribed and edited by Fynnian Titford-Mock, 2007
Z:abc's:AK/Fiddler's Companion
K:G
(GB) (dg)|bg dB|gd BG|dAFD|GB dg|bgdB|edcB|A2 A2:|
|:d>edB|ca a2|c>dcA|Bg g2|e=fec|dedc|Bc AB|G2 G2:|

